X: 1
T: Fighting 59th, The
M: 4/4
L: 1/8
R: hornpipe
K: Dmaj
|: (3ABc | ddcd BAFA | Bcdc BA (3ABc | dddd cdef | edcA A2 (3ABc |
defe dA2F | GFGA B2 (3ABc | ddcd BAFA | dfec d2 :|
dc |: BD (3FED FF (3FED | AFAB A2 dc | BD (3FED FF (3FED | EDEF E2 dc |
BD (3FED FF (3FED | AFAB A3 A | (3ABc (3dAF E2 D2 :|
